!!!COM: Webern, Anton (Friedrich Wilhelm von)
!!!OTL: Fünf Stücke (Five Pieces) for Orchestra, op. 10
!!!OMV: Movement 1
!!!example: 408
!!!work: Web-13
!!!OMD-full: Sehr ruhig und zart
!!!OMD: Sehr ruhig und zart ([quarter] = ca 50)
**kern	**dynam	**kern	**dynam	**kern	**dynam	**kern	**dynam	**kern	**kern	**dynam	**kern	**kern	**dynam	**kern	**dynam	**kern	**dynam	**kern	**dynam	**kern	**dynam
*grp:A	*grp:A	*grp:A	*grp:A	*grp:A	*grp:A	*grp:B	*grp:B	*grp:A	*grp:A	*grp:A	*grp:A	*grp:A	*grp:A	*grp:B	*grp:B	*grp:A	*grp:A	*grp:A	*grp:A	*grp:B	*grp:B
*part10	*part10	*part9	*part9	*part8	*part8	*part7	*part7	*part6	*part6	*part6	*part5	*part5	*part5	*part4	*part4	*part3	*part3	*part2	*part2	*part1	*part1
*staff12	*	*staff11	*	*staff10	*	*staff9	*	*staff8	*staff7	*	*staff6	*staff5	*	*staff4	*	*staff3	*	*staff2	*	*staff1	*
*ICstr	*	*ICstr	*	*ICstr	*	*ICidio	*	*ICstr	*ICstr	*	*ICidio	*ICidio	*	*ICbras	*	*ICbras	*	*ICww	*	*ICww	*
*Icello	*	*Iviola	*	*Ivioln	*	*Iglock	*	*Iarpa	*Iarpa	*	*Iclest	*Iclest	*	*Itromt	*	*Itromp	*	*Iclars	*	*Iflt	*
*I"Solo Violoncello	*	*I"Solo Viola	*	*I"Solo Violin	*	*I"Glockenspiel	*	*I"Harp	*	*	*I"Celesta	*	*	*I"Trombone	*	*I"Trumpet in Bb	*	*I"Clarinet in Bb	*	*I"Flute	*
*I'Vc.	*	*I'Vla.	*	*I'Vln.	*	*I'Glock.	*	*I'Hp.	*	*	*I'Cel.	*	*	*I'Tbn.	*	*I'Tpt.	*	*I'Cl.	*	*I'Fl.	*
*clefF4	*	*clefC3	*	*clefG2	*	*clefG2	*	*clefF4	*clefG2	*	*clefF4	*clefG2	*	*clefF4	*	*clefG2	*	*clefG2	*	*clefG2	*
*	*	*	*	*	*	*ITrd-14c-24	*	*	*	*	*ITrd-7c-12	*ITrd-7c-12	*	*	*	*ITrd1c2	*	*ITrd1c2	*	*	*
*k[]	*	*k[]	*	*k[]	*	*k[]	*	*k[]	*k[]	*	*k[]	*k[]	*	*k[]	*	*k[0]	*	*k[0]	*	*k[]	*
*M2/4	*	*M2/4	*	*M2/4	*	*M2/4	*	*M2/4	*M2/4	*	*M2/4	*M2/4	*	*M2/4	*	*M2/4	*	*M2/4	*	*M2/4	*
!LO:TX:t=[con sord.]	!	!LO:TX:t=[con sord.]	!	!LO:TX:t=[con sord.]	!	!	!	!	!	!	!	!	!	!LO:TX:t=[con sord.]	!	!LO:TX:t=[con sord.]	!	!	!	!	!
8r	.	8r	.	8r	.	8r	.	8r	8bn	ppp	8r	8r	.	8r	.	8bnX'	ppp	8r	.	8r	.
=1	=1	=1	=1	=1	=1	=1	=1	=1	=1	=1	=1	=1	=1	=1	=1	=1	=1	=1	=1	=1	=1
*	*	*	*	*	*	*	*	*	*grp:B	*grp:B	*	*	*	*	*	*	*	*	*	*	*
!	!	!	!	!	!	!	!	!	!	!	!	!	!	!	!	!	!	!	!	!LO:TX:a:t=Flatterz.	!
!	!	!LO:N:n=2:head=dia	!	!	!	!	!	!	!	!	!	!	!	!	!	!	!	!	!	!	!
2r	.	8Cnv~ 8Fno	pp	2r	.	2r	.	4cno	4r	.	2r	4ccn~	ppp	2r	.	2r	.	2r	.	4r	.
.	.	8r	.	.	.	.	.	.	.	.	.	.	.	.	.	.	.	.	.	.	.
!	!	!	!	!	!	!	!	!	!LO:TUP:a	!	!	!	!	!	!	!	!	!	!	!	!
.	.	4r	.	.	.	.	.	4r	12r	.	.	4r	.	.	.	.	.	.	.	12r	ppp
!	!	!	!	!	!	!	!	!	!	!	!	!	!	!	!	!	!	!	!	!	!
*	*	*	*	*	*	*	*	*	*	*	*	*	*	*	*	*	*	*	*	*	*
*	*	*	*	*	*	*	*	*	*	*	*	*	*	*	*	*	*	*	*	*tremolo	*
.	.	.	.	.	.	.	.	.	6bn	pp	.	.	.	.	.	.	.	.	.	48bnLLL	<
.	.	.	.	.	.	.	.	.	.	.	.	.	.	.	.	.	.	.	.	48bn	.
.	.	.	.	.	.	.	.	.	.	.	.	.	.	.	.	.	.	.	.	48bn	.
.	.	.	.	.	.	.	.	.	.	.	.	.	.	.	.	.	.	.	.	48bn	.
.	.	.	.	.	.	.	.	.	.	.	.	.	.	.	.	.	.	.	.	.	.
.	.	.	.	.	.	.	.	.	.	.	.	.	.	.	.	.	.	.	.	48bn	.
.	.	.	.	.	.	.	.	.	.	.	.	.	.	.	.	.	.	.	.	48bn	.
.	.	.	.	.	.	.	.	.	.	.	.	.	.	.	.	.	.	.	.	48bn	.
.	.	.	.	.	.	.	.	.	.	.	.	.	.	.	.	.	.	.	.	48bnJJJ	.
.	.	.	.	.	.	.	.	.	.	.	.	.	.	.	.	.	.	.	.	.	.
.	.	.	.	.	.	.	.	.	.	.	.	.	.	.	.	.	.	.	.	.	.
.	.	.	.	.	.	.	.	.	.	.	.	.	.	.	.	.	.	.	.	.	.
.	.	.	.	.	.	.	.	.	.	.	.	.	.	.	.	.	.	.	.	.	.
.	.	.	.	.	.	.	.	.	.	.	.	.	.	.	.	.	.	.	.	.	[[
*	*	*	*	*	*	*	*	*	*	*	*	*	*	*	*	*	*	*	*	*Xtremolo	*
=2	=2	=2	=2	=2	=2	=2	=2	=2	=2	=2	=2	=2	=2	=2	=2	=2	=2	=2	=2	=2	=2
!	!	!	!	!	!	!LO:TX:a:i:t=dolcissimo	!	!	!	!	!	!	!	!	!	!	!	!	!	!	!
2r	.	2r	.	2r	.	6eeee-X	pp >	2r	2r	.	2r	2r	.	2r	.	2r	.	2r	.	2r	.
.	.	.	.	.	.	6gggn	.	.	.	.	.	.	.	.	.	.	.	.	.	.	.
.	.	.	.	.	.	6dddn	]]	.	.	.	.	.	.	.	.	.	.	.	.	.	.
=3	=3	=3	=3	=3	=3	=3	=3	=3	=3	=3	=3	=3	=3	=3	=3	=3	=3	=3	=3	=3	=3
!	!	!	!	!	!	!	!	!	!	!	!LO:TR:acc=n	!	!	!	!	!	!	!LO:TX:a:i:t=dolcissimo	!	!	!
2r	.	2r	.	2r	.	2r	.	2r	2r	.	2g#X^tt	2r	pp	2r	.	2r	.	4r	.	2r	.
.	.	.	.	.	.	.	.	.	.	.	.	.	.	.	.	.	.	8r	.	.	.
.	.	.	.	.	.	.	.	.	.	.	.	.	.	.	.	.	.	([8ffn	ppp	.	.
=4	=4	=4	=4	=4	=4	=4	=4	=4	=4	=4	=4	=4	=4	=4	=4	=4	=4	=4	=4	=4	=4
*	*	*grp:B	*grp:B	*grp:B	*grp:B	*	*	*	*	*	*	*	*	*	*	*	*	*	*	*	*
!	!	!	!	!	!	!	!	!	!	!	!	!	!	!	!	!	!	!	!	!	!
2r	.	4r	.	4r	.	2r	.	2r	4r	.	2g#Xttt	2r	<	2r	.	2r	.	8ff]	.	4r	.
.	.	.	.	.	.	.	.	.	.	.	.	.	.	.	.	.	.	[4.aanX	<	.	.
!	!	!	!	!	!	!	!	!	!	!	!	!	!	!	!	!	!	!	!	!LO:TUP:a	!
.	.	8r	.	8r	.	.	.	.	8r	.	.	.	.	.	.	.	.	.	.	12r	ppp
.	.	.	.	.	.	.	.	.	.	.	.	.	.	.	.	.	.	.	.	[6cc#X	<
.	.	[8dnv	pp <	[8Bnv	pp <	.	.	.	8Bn 8dn	ppp	.	.	[[	.	.	.	.	.	[[	.	[[
!!LO:REH:t=5
=5	=5	=5	=5	=5	=5	=5	=5	=5	=5	=5	=5	=5	=5	=5	=5	=5	=5	=5	=5	=5	=5
!	!	!	!	!	!	!	!	!	!	!	!	!	!	!	!	!	!	!	!	!LO:TUP:a	!
2r	.	12d]	[[	12B]	[[	2r	.	2r	6r	.	2g#Xttt	2r	>	2r	.	2r	.	4aa]	.	12cc#]	.
.	.	12r	.	12r	.	.	.	.	.	.	.	.	.	.	.	.	.	.	.	12r	.
.	.	6.e-Xv	>	6.cnv	>	.	.	.	6cn 6e-X	pp	.	.	.	.	.	.	.	.	.	6.b-X	>
!	!	!	!	!	!	!	!	!	!	!	!	!	!	!	!	!	!	!	!	!LO:TX:a:B:i:t=zögernd	!
.	.	.	.	.	.	.	.	.	.	.	.	.	.	.	.	.	.	8bbnXL	>	.	.
.	.	.	.	.	.	.	.	.	6r	.	.	.	.	.	.	.	.	.	.	.	.
.	.	.	]]	.	]]	.	.	.	.	.	.	.	.	.	.	.	.	8ee-J)	]]	.	]]
!	!	!	!	!	!	!	!	!	!	!	!	!	!	!	!	!	!	!	!	!	!
.	.	12r	.	12r	.	.	.	.	.	.	.	.	]]	.	.	.	.	.	.	12r	.
*clefC4	*	*	*	*	*	*	*	*	*	*	*	*	*	*	*	*	*	*	*	*	*
=6	=6	=6	=6	=6	=6	=6	=6	=6	=6	=6	=6	=6	=6	=6	=6	=6	=6	=6	=6	=6	=6
*	*	*	*	*	*	*	*	*	*	*	*	*	*	*	*	*grp:B	*grp:B	*	*	*	*
!	!	!	!	!	!	!	!	!	!	!	!	!	!	!	!	!	!	!	!	!LO:TX:a:B:i:t=tempo	!
16r	.	4d-Xv	pp >	4B-Xv	pp >	2r	.	2r	4B-X 4d-X	ppp	2g#ttt	2r	<	4r	.	4r	.	8r	.	2r	.
!	!	!	!	!	!	!	!	!	!	!	!	!	!	!	!	!	!	!	!	!	!
!	!LO:DY:t=%s dolcissimo	!	!	!	!	!	!	!	!	!	!	!	!	!	!	!	!	!	!	!	!
8ccnvN	pp	.	.	.	.	.	.	.	.	.	.	.	.	.	.	.	.	.	.	.	.
.	.	.	.	.	.	.	.	.	.	.	.	.	.	.	.	.	.	(4bbnX	ppp >	.	.
16r	.	.	]]	.	]]	.	.	.	.	.	.	.	.	.	.	.	.	.	.	.	.
!	!	!	!	!	!	!	!	!	!	!	!	!	!	!LO:TUP:a	!	!	!	!	!	!	!
8.ddnvN	.	4r	.	4r	.	.	.	.	4r	.	.	.	.	12r	.	12r	.	.	.	.	.
.	.	.	.	.	.	.	.	.	.	.	.	.	.	.	.	.	.	.	.	.	.
.	.	.	.	.	.	.	.	.	.	.	.	.	.	(6Gn	ppp <	(6e-	ppp <	.	.	.	.
.	.	.	.	.	.	.	.	.	.	.	.	.	.	.	.	.	.	8ffn)	.	.	.
16r	.	.	.	.	.	.	.	.	.	.	.	.	[[	.	[[	.	[[	.	]]	.	.
=7	=7	=7	=7	=7	=7	=7	=7	=7	=7	=7	=7	=7	=7	=7	=7	=7	=7	=7	=7	=7	=7
*	*	*	*	*grp:A	*grp:A	*	*	*	*	*	*	*	*	*	*	*	*	*	*	*	*
!	!	!	!	!LO:TX:a:i:t=dolcissimo	!	!	!	!	!	!	!	!	!	!LO:TUP:a	!	!	!	!	!	!	!
8r	.	2r	.	4r	.	2r	.	2r	2r	.	2g#Xttt	2r	>	6Fn	.	6g-X	.	2r	.	2r	.
(4cc#X	pp >	.	.	.	.	.	.	.	.	.	.	.	.	.	.	.	.	.	.	.	.
.	.	.	.	.	.	.	.	.	.	.	.	.	.	6F#X)	>	12fn~L	>	.	.	.	.
.	.	.	.	[4bbb-X	p <	.	.	.	.	.	.	.	.	.	]]	12g~J)	]]	.	.	.	.
.	.	.	.	.	[ >	.	.	.	.	.	.	.	.	6r	.	6r	.	.	.	.	.
8Bn)	]]	.	.	.	]]	.	.	.	.	.	.	.	]]	.	.	.	.	.	.	.	.
=8	=8	=8	=8	=8	=8	=8	=8	=8	=8	=8	=8	=8	=8	=8	=8	=8	=8	=8	=8	=8	=8
*	*	*	*	*grp:B	*grp:B	*	*	*	*	*	*	*	*	*	*	*	*	*	*	*grp:A	*grp:A
!	!	!	!	!	!	!	!	!	!	!	!	!LO:TX:b:i:t=verklingend	!	!	!	!	!	!	!	!LO:TX:a:t=Flatterz.	!
(4.an	ppp <	2r	.	12bbb-L]	.	2r	.	2r	2r	.	4g#Xttt	2r	.	2r	.	2r	.	2r	.	8r	.
.	.	.	.	(12ddn	<	.	.	.	.	.	.	.	.	.	.	.	.	.	.	.	.
*	*	*	*	*	*	*	*	*	*	*	*	*	*	*	*	*	*	*	*	*tremolo	*
!	!	!	!	!	!	!	!	!	!	!	!	!	!	!	!	!	!	!	!	!	!
.	.	.	.	.	.	.	.	.	.	.	.	.	.	.	.	.	.	.	.	32g#XLLL	ppp <
.	.	.	.	.	.	.	.	.	.	.	.	.	.	.	.	.	.	.	.	32g#	.
.	.	.	.	12ccc#XJ	.	.	.	.	.	.	.	.	.	.	.	.	.	.	.	.	.
.	.	.	.	.	.	.	.	.	.	.	.	.	.	.	.	.	.	.	.	32g#	.
.	.	.	.	.	.	.	.	.	.	.	.	.	.	.	.	.	.	.	.	32g#	.
.	.	.	.	.	.	.	.	.	.	.	.	.	.	.	.	.	.	.	.	.	.
.	.	.	.	.	.	.	.	.	.	.	.	.	.	.	.	.	.	.	.	.	.
.	[[	.	.	.	[	.	.	.	.	.	.	.	.	.	.	.	.	.	.	.	.
!	!	!	!	!LO:TUP:xbr	!	!	!	!	!	!	!	!	!	!	!	!	!	!	!	!	!
.	>	.	.	6fffn	>	.	.	.	.	.	4r	.	.	.	.	.	.	.	.	32en	.
.	.	.	.	.	.	.	.	.	.	.	.	.	.	.	.	.	.	.	.	32en	.
.	.	.	.	.	.	.	.	.	.	.	.	.	.	.	.	.	.	.	.	32en	.
.	.	.	.	.	.	.	.	.	.	.	.	.	.	.	.	.	.	.	.	32en	.
8ccn)	.	.	.	.	.	.	.	.	.	.	.	.	.	.	.	.	.	.	.	32fn	.
.	.	.	.	.	.	.	.	.	.	.	.	.	.	.	.	.	.	.	.	32fn	.
.	.	.	.	12ff#X)	.	.	.	.	.	.	.	.	.	.	.	.	.	.	.	.	.
.	.	.	.	.	.	.	.	.	.	.	.	.	.	.	.	.	.	.	.	32fn	.
.	]]	.	.	.	]]	.	.	.	.	.	.	.	.	.	.	.	.	.	.	32fnJJJ	[
*	*	*	*	*	*	*	*	*	*	*	*	*	*	*	*	*	*	*	*	*Xtremolo	*
=9	=9	=9	=9	=9	=9	=9	=9	=9	=9	=9	=9	=9	=9	=9	=9	=9	=9	=9	=9	=9	=9
*	*	*	*	*grp:A	*grp:A	*grp:A	*grp:A	*	*grp:A	*grp:A	*	*	*	*	*	*grp:A	*grp:A	*	*	*grp:B	*grp:B
*	*	*	*	*	*	*	*	*	*	*	*	*	*	*	*	*	*	*	*	*tremolo	*
2r	.	2r	.	8r	.	8r	.	2r	4r	.	2r	2r	.	2r	.	4r	.	2r	.	48enLLL	>
.	.	.	.	.	.	.	.	.	.	.	.	.	.	.	.	.	.	.	.	48en	.
.	.	.	.	.	.	.	.	.	.	.	.	.	.	.	.	.	.	.	.	48en	.
.	.	.	.	.	.	.	.	.	.	.	.	.	.	.	.	.	.	.	.	48en	.
.	.	.	.	.	.	.	.	.	.	.	.	.	.	.	.	.	.	.	.	48dd#X	.
.	.	.	.	.	.	.	.	.	.	.	.	.	.	.	.	.	.	.	.	48dd#	.
.	.	.	.	[4.gggn	pp >	4ggggn~	ppp	.	.	.	.	.	.	.	.	.	.	.	.	48dd#	.
.	.	.	.	.	.	.	.	.	.	.	.	.	.	.	.	.	.	.	.	48dd#JJJ	]]
*	*	*	*	*	*	*	*	*	*	*	*	*	*	*	*	*	*	*	*	*Xtremolo	*
.	.	.	.	.	.	.	.	.	.	.	.	.	.	.	.	.	.	.	.	12r	.
.	.	.	.	.	.	.	.	.	.	.	.	.	.	.	.	.	.	.	.	.	.
!	!	!	!	!	!	!	!	!	!	!	!	!	!	!	!	!LO:TX:a:i:t=espr.	!	!	!	!LO:TX:a:B:i:t=zögernd	!
.	.	.	.	.	.	.	.	.	16r	.	.	.	.	.	.	16r	.	.	.	4r	.
.	.	.	.	.	.	.	.	.	16an'^LL	ppp <	.	.	.	.	.	8anX~	ppp <	.	.	.	.
.	.	.	.	.	.	8r	.	.	16a'JJ	[[	.	.	.	.	.	.	[[	.	.	.	.
.	.	.	.	.	]]	.	.	.	16r	.	.	.	.	.	.	16r	.	.	.	.	.
*clefF4	*	*	*	*	*	*	*	*	*	*	*	*	*	*	*	*	*	*	*	*	*
!!LO:REH:t=10
=10	=10	=10	=10	=10	=10	=10	=10	=10	=10	=10	=10	=10	=10	=10	=10	=10	=10	=10	=10	=10	=10
*^	*	*	*	*	*	*	*	*	*	*	*	*	*	*	*	*	*	*	*	*	*
*	*	*	*	*	*	*	*	*	*grp:B	*	*	*	*	*	*	*	*	*	*	*	*	*
!	!	!	!	!	!	!	!	!	!	!	!	!	!	!	!	!	!	!	!	!	!	!
!	!	!	!	!	!	!	!	!	!	!	!	!	!	!	!	!	!	!	!	!	!LO:TX:a:i:B:t=tempo	!
!LO:N:n=2:head=dia	!	!	!	!	!	!	!	!	!LO:TUP:a:r=2	!	!	!	!	!	!	!	!	!	!	!	!	!
4.GG#X 4.C#X	2ryy	pp <	2r	.	4ggg]	ppp >	2r	.	6r	2r	.	4.g#X^	2r	pp	2r	.	2r	.	2r	.	2r	.
.	.	.	.	.	.	]]	.	.	12r	.	.	.	.	.	.	.	.	.	.	.	.	.
.	.	[ >	.	.	4r	.	.	.	12DnLo	.	pp <	.	.	.	.	.	.	.	.	.	.	.
.	.	]]	.	.	.	.	.	.	12eno	.	.	.	.	.	.	.	.	.	.	.	.	.
8r	.	.	.	.	.	.	.	.	.	.	.	8r	.	.	.	.	.	.	.	.	.	.
.	.	.	.	.	.	.	.	.	12B-XJo	.	[[	.	.	.	.	.	.	.	.	.	.	.
*v	*v	*	*	*	*	*	*	*	*	*	*	*	*	*	*	*	*	*	*	*	*	*
=11	=11	=11	=11	=11	=11	=11	=11	=11	=11	=11	=11	=11	=11	=11	=11	=11	=11	=11	=11	=11	=11
*	*	*	*	*	*	*	*	*grp:A	*	*	*	*	*	*	*	*	*	*	*	*	*
!	!	!	!	!	!	!	!	!	!	!	!	!	!	!	!	!	!	!	!	!	!
2r	.	2r	.	2r	.	2r	.	8B-XLo	2r	.	2r	2r	.	2r	.	2r	.	2r	.	2r	.
.	.	.	.	.	.	.	.	8Ano	.	>	.	.	.	.	.	.	.	.	.	.	.
!	!	!	!	!	!	!	!	!	!	!	!	!	!	!	!	!	!	!	!	!LO:TX:a:B:i:t=rit.	!
.	.	.	.	.	.	.	.	8Bno	.	.	.	.	.	.	.	.	.	.	.	.	.
.	.	.	.	.	.	.	.	8E-XJo	.	]]	.	.	.	.	.	.	.	.	.	.	.
=12	=12	=12	=12	=12	=12	=12	=12	=12	=12	=12	=12	=12	=12	=12	=12	=12	=12	=12	=12	=12	=12
*	*	*	*	*	*	*	*	*	*	*	*	*	*	*	*	*	*	*	*	*grp:A	*grp:A
2r	.	2r	.	2r	.	2r	.	2r	2r	.	4r	2r	.	2r	.	8r	.	2r	.	16r	ppp
!	!	!	!	!	!	!	!	!	!	!	!	!	!	!	!	!	!	!	!	!	!
.	.	.	.	.	.	.	.	.	.	.	.	.	.	.	.	.	.	.	.	16fn'LL	>
.	.	.	.	.	.	.	.	.	.	.	.	.	.	.	.	16f'LLn	ppp >	.	.	16f'JJ	]]
.	.	.	.	.	.	.	.	.	.	.	.	.	.	.	.	16f'JJ	]]	.	.	16r	.
.	.	.	.	.	.	.	.	.	.	.	16r	.	.	.	.	4r	.	.	.	4r	.
!	!	!	!	!	!	!	!	!	!	!	!	!	!	!	!	!	!	!	!	!	!
.	.	.	.	.	.	.	.	.	.	.	16fn'	.	ppp	.	.	.	.	.	.	.	.
.	.	.	.	.	.	.	.	.	.	.	8r	.	.	.	.	.	.	.	.	.	.
==	==	==	==	==	==	==	==	==	==	==	==	==	==	==	==	==	==	==	==	==	==
*-	*-	*-	*-	*-	*-	*-	*-	*-	*-	*-	*-	*-	*-	*-	*-	*-	*-	*-	*-	*-	*-
!!!system-decoration: [(s1,s2)][(s3,s4)][({(s5,s6)})][({(s7,s8)})][(s9)][(s10,s11,s12)]
!!!RDF**kern: N = hairpin accent
!!!CDT: 1883/12/03-1945/09/15
!!!CBL: Vienna, Austria
!!!CDL: Mittersill, Austria
!!!CNT: Austrian
!!!AGN: Orchestral; Symphonic
!!!MCN: Webern, Anton
!!!MDT: 1924/06/22
!!!MGN: unknown
!!!MLC: Zürich, Switzerland
!!!MPD: 1924
!!!MPN:
!!!ODT: 1913
!!!PDT: 1923
!!!excerpt-start-measure: 0.75
!!!excerpt-end-measure: 12
!!!excerpt-start-time: 0:00
!!!excerpt-end-time: 0:58
!!!excerpt-duration-sec: 58
!!!excerpt-time-signature: 2/4
!!!excerpt-tempo-beat: quarter
!!!excerpt-tempo-rate: 50
!!!excerpt-meter-type: duple
!!!excerpt-beat-group: G2
!!!excerpt-beat-subgroup: G2
!!!experiment: 1
!!!EEV: 2020/07/28
!!!ONB: Converted from MusicXML on 2020/07/28
